!!!!SEGMENT: pl-wtm--r-2030--002_smietanski-emil-wladyslaw--mazurka.krn
!!!cenid: 18xx:2009
!!!COM: Śmietański, Emil Władysław
!!!COM-rismid: pe50041781
!!!CDT: 1845-1886
!!!CNT: Polish
!!!OTL: Mazurka
!!!PDT: 1869
!!!AGN: Secular; Mazurka
!!!SMS-siglum: PL-Wtm
!!!SMS-shelfmark: R 2030
!!!SMS-shelfwork: 002 W
!!!SMS-variant:
!!!SMS-altvar:
!!!NIFC-rismid: 1001112552
!!!URL-scan: http://repozytorium.nifc.pl/skany/pl-wtm-nut--r2030
!!!ONB-nifc: UWAGA: w zbiorze 1. Polka-Capricio i 2. Mazurka
**kern	**kern	**dynam
*part1	*part1	*part1
*staff2	*staff1	*
*I"Fortepian	*I"Fortepian	*
*I'pf	*I'pf	*
*>[A,B,B,C,A,D,D,E]	*>[A,B,B,C,A,D,D,E]	*>[A,B,B,C,A,D,D,E]
*>A	*>A	*>A
*clefF4	*clefG2	*
*k[f#c#g#]	*k[f#c#g#]	*
*A:	*A:	*
*M3/4	*M3/4	*
=1	=1	=1
!	!	!LO:DY:t=mf.
4AA/	8cc#L 8a\	mf
.	8dd#XJ 8b#X\	.
4a 4e 4c#\	4ee 4cc#\	.
.	8qff#/	.
4a 4d#X 4B#X\	8eeL 8cc#\	.
.	8dd#J 8b#\	.
=2	=2	=2
4A\	8cc#L 8a\	.
.	8dd#XJ 8b#X\	.
4e\	4cc# 4a\	.
4E\	4b# 4g#\	.
=3	=3	=3
4C#\	8aL 8f#\	.
.	8b#XJ 8g#\	.
4A\	4a 4f#\	.
4AA\	4a 4d#X\	.
=4	=4	=4
*	*2\right	*
4r	2.a 2.e\	.
4A 4C#/	.	.
4AAA/	.	.
=5	=5	=5
4AA/	8cc#L 8a\	.
.	8dd#XJ 8b#X\	.
4a 4e 4c#\	4ee 4cc#\	.
.	8qff#/	.
4a 4d#X 4B#X\	8eeL 8cc#\	.
.	8dd#J 8b#\	.
=6	=6	=6
4c#\	8eeL 8cc#\	.
.	8aa\J	.
4a\	4ee 4cc#\	.
4A\	8eeL 8cc#\	.
.	8dd#XJ 8b#X\	.
!!LO:LB:g=original
=7	=7	=7
4E\	16cc#LL 16a\	.
.	16dd#X 16b#X\	.
.	16ee 16cc#\	.
.	16dd#JJ 16b#\	.
4c#\	4cc# 4a\	.
4E\	4b# 4g#\	.
=8	=8	=8
*	*Xtuplet	*
4C#\	12aL 12f#\	.
.	12b#X\	.
.	12aJ 12f#\	.
4A 4C#\	2a 2e\	.
4AAA/	.	.
=9	=9	=9
4B#X 4D#X\	8aL 8f#\	.
.	8b#X\J	.
4AA\	4a 4f#\	.
4B# 4D#\	8aL 8e\	.
.	8d#X\J	.
=10	=10	=10
4c# 4E\	8aL 8e\	.
.	8cc#\J	.
4AA\	4ee\	.
.	8qff#/	.
4c# 4E\	8eeL 8cc#\	.
.	8dd#XJ 8b#X\	.
=11	=11	=11
4B#X 4F#\	8cc#L 8a\	.
.	8dd#XJ 8b#X\	.
4AA\	4cc# 4a\	.
4B# 4F#\	4b# 4g#\	.
=12	=12	=12
4c# 4E\	12aL 12f#\	.
.	12b#X\	.
.	12aJ 12f#\	.
4c# 4E\	2a 2e\	.
4AAA/	.	.
=13	=13	=13
4B#X 4D#X\	8aL 8f#\	.
.	8b#X\J	.
4AA\	4a 4f#\	.
4B# 4D#\	8aL 8e\	.
.	8d#X\J	.
!!LO:LB:g=original
=14	=14	=14
4c# 4E\	8aL 8e\	.
.	8cc#\J	.
4AA\	4ee\	.
.	8qff#/	.
4c# 4E\	8eeL 8cc#\	.
.	8dd#XJ 8b#X\	.
=15	=15	=15
4B#X 4F#\	16cc#LL 16a\	.
.	16dd#X 16b#X\	.
.	16aa 16cc#\	.
.	16dd#JJ 16b#\	.
4AA\	4cc# 4a\	.
4B# 4F#\	4a 4d#X\	.
=16	=16	=16
*	*ped	*
4r	2.a 2.e\	.
4c# 4E\	.	.
*	*Xped	*
!	!	!LO:DY:rj:t=f.
4AAA/	.	f
=17	=17	=17
4r	2.a 2.e\	.
4c# 4E\	.	.
4AAA/	.	.
=18	=18	=18
4r	2.a 2.e\	.
4c# 4E\	.	.
!	!LO:TX:b:t=[segno]	!
4AAA/	.	.
=19!|:	=19!|:	=19!|:
*>B	*>B	*>B
*k[]	*k[]	*
!	!LO:TX:b:i:t=espressivo.	!
.	8qa	.
4AA\	8.aa\L	.
.	16aa\Jk	.
4f 4d 4A\	4gg#X\	.
4f 4d 4A\	4ffn\	.
=20	=20	=20
.	8qff/	.
4AA\	8.ee\L	.
.	16dd#X\Jk	.
*2\right	*	*
2e 2c 2A\	2ee\	.
=21	=21	=21
*	*tuplet	*
!	!LO:TUP:a:problem:klamra łukowa	!
4EE\	12a\L	.
.	12b\	.
.	12cc\J	.
4d 4G#X 4F\	4b\	.
!LO:TX:t=P:problem:zmiana dopisana ołówkiem 4G# -> 4B	!	!
4d 4G# 4E\	4g#X\	.
!!LO:LB:g=original
=22	=22	=22
4AA\	8.a\L	.
.	16cc\Jk	.
2c 2A 2E\	2ee\	.
=23	=23	=23
.	8qa/	.
4AA\	8aa\L	.
.	8gg#X\	.
.	16qbb/	.
4f 4d 4A\	8aa\	.
.	8gg#\	.
4f 4d 4A\	8aa\	.
.	8ff\J	.
=24	=24	=24
.	8qff/	.
4AA\	8.ee\L	.
.	16dd#X\Jk	.
2e 2c 2A\	2ee\	.
=25	=25	=25
4EE\	8a\L	.
!	!	!LO:DY:rj:t=p.
.	8b\	p
4c 4A 4E\	8cc\	.
*	*Xtuplet	*
.	24cc\L	.
.	24dd\	.
.	24cc\J	.
!LO:TX:t=P:problem:zmiana dopisana ołówkiem 4G# -> 4B	!	!
!LO:TX:t=P:problem:zmiana dopisana ołówkiem 4Fn -> 4E	!	!
4d 4G#X 4Fn\	8b\	.
.	8g#X\J	.
=26	=26	=26
!LO:TX:t=P:problem:zmiana dopisana ołówkiem 4E -> 4A	!	!
4c 4E\	2.a\	.
4AAA/	.	.
4AA/	.	.
=27||	=27||	=27||
8B-XL 8D\	4r	.
!	!	!LO:DY:rj
8d\J	.	pp
4d\	4b-X 4f\	.
8qe/	.	.
8d\L	4b- 4f\	.
8c#X\J	.	.
=28	=28	=28
8d\L	4r	.
8f\J	.	.
4d\	4b-X 4f\	.
4c#X\	4b- 4f\	.
=29	=29	=29
8B-X\L	4r	.
8d\J	.	.
4B-\	4b-X 4f 4d\	.
4F\	4b- 4f 4d\	.
!!LO:LB:g=original
=30	=30	=30
*^	*	*
*	*	*ped	*
2.B-X/	4r	4r	.
.	4F 4BB-y\	4ff 4b-X 4d\	.
.	4BBB-X/	4ff 4b- 4d\	.
=31	=31	=31	=31
8B-XL 8D/	2ryy	4r	.
8d/J	.	.	.
4d/	.	4b-X 4f\	.
8d/L	4e\	4b- 4f\	.
8c#X/J	.	.	.
*v	*v	*	*
=32	=32	=32
!LO:TX:t=P:problem:mixed beam	!	!
16d\LL	4r	.
16f>/	.	.
16b-X>/	.	.
16f>/JJ	.	.
4d/	4b-y 4f\	.
4c#X/	4b- 4f\	.
=33	=33	=33
8B-X/L	4r	.
8c#X/J	.	.
4d/	4b-X 4f\	.
8e/L	4b- 4f\	.
8c#/J	.	.
=34	=34	=34
*^	*	*
*	*	*ped	*
2.d/	4r	4r	.
.	4F 4BB-X\	4ff 4b-X 4d\	.
.	4BBB-X/	4ff 4b- 4d\	.
=35	=35	=35	=35
!	!	!	!LO:DY:t=pp.
8B-XL 8D/	2ryy	4r	pp
8d/J	.	.	.
4d/	.	4b-X 4f\	.
8d/L	4e\	4b- 4f\	.
8c#X/J	.	.	.
*v	*v	*	*
=36	=36	=36
8d/L	4r	.
8f/J	.	.
4d/	4b-X 4f\	.
4c#X/	4b- 4f\	.
=37	=37	=37
8B-X/L	4r	.
8d/J	.	.
4B-/	4b-X 4f 4d\	.
4F/	4b- 4f 4d\	.
=38	=38	=38
*^	*	*
2.B-X/	4r	4r	.
*	*	*ped	*
.	4F 4BB-X\	4ff 4b-X 4d\	.
.	4BBB-X\	4ff 4b- 4d\	.
!!LO:LB:g=original
=39	=39	=39	=39
8B-XL 8D/	2ryy	4r	.
8d/J	.	.	.
4d/	.	4b-X 4f\	.
8d/L	4e\	4b- 4f\	.
8c#X/J	.	.	.
*v	*v	*	*
=40	=40	=40
!LO:TX:t=P:problem:mixed beam	!	!
16d\LL	4r	.
16f>/	.	.
16b-X>/	.	.
16f>/JJ	.	.
4d/	4b-X 4f\	.
4c#X/	4b- 4f\	.
=41	=41	=41
8B-X/L	4r	.
8c#X/J	.	.
*Xtuplet	*	*
20d/LL	4b-X 4f\	.
20e/	.	.
20d/	.	.
20c#/	.	.
20d/JJ	.	.
8e/L	4b- 4f\	.
8c#/J	.	.
=42	=42	=42
*^	*	*
*	*	*ped	*
2.d/	4r	4r	.
.	4F 4BB-X\	4ff 4b-X 4d\	.
.	4BBB-X/	4ff 4b- 4d\	.
*v	*v	*	*
=43:|!	=43:|!	=43:|!
*>C	*>C	*>C
!	!LO:TX:b:i:t=espress.	!
.	16qa/	.
4AA\	8.aa\L	.
.	16aa\Jk	.
4f 4d 4A\	4gg#X\	.
*2\left	*	*
!LO:N:n=1:vis=2	!	!
4f 4d 4A\	4ff\	.
=44	=44	=44
.	16qff/	.
4AA\	8.ee\L	.
.	16dd#X\Jk	.
*2\right	*	*
2e 2c 2A\	2ee\	.
=45	=45	=45
*	*tuplet	*
!	!LO:TUP:a:problem:klamra łukowa	!
4EE\	12a\L	.
.	12b\	.
.	12cc\J	.
4d 4G#X 4F\	4b\	.
!LO:TX:t=P:problem:zmiana dopisana ołówkiem 4G# -> 4B	!	!
4d 4G# 4E\	4g#X\	.
=46	=46	=46
4AA\	8.a\L	.
.	16cc\Jk	.
2c 2A 2E\	2ee\	.
=47	=47	=47
.	16qa/	.
4AA\	8aa\L	.
.	8gg#X\	.
.	16qbb/	.
4f 4d 4A\	8aa\	.
.	8gg#\	.
4f 4d 4A\	8aa\	.
.	8ff\J	.
!!LO:LB:g=original
=48	=48	=48
.	16qff/	.
4AA\	8.ee\L	.
.	16dd#X\Jk	.
2e 2c 2A\	2ee\	.
=49	=49	=49
4EE\	8a\L	.
!	!	!LO:DY:t=p.
.	8b\J	p
4c 4A 4E\	8cc\L	.
*	*Xtuplet	*
.	24cc\L	.
.	24dd\	.
.	24cc\JJ	.
!LO:TX:t=P:problem:zmiana dopisana ołówkiem 4G# -> 4B	!	!
4d 4G#X 4Fn\	8b\L	.
.	8g#X\J	.
=50	=50	=50
*	*ped	*
!	!LO:TX:t=P:problem:Ped. with extention line	!
4c 4E\	2.a\	.
4AA 4AAA\	.	.
4E 4EE\	.	.
=51	=51	=51
4c 4C\	2.a\	.
4AA 4AAA\	.	.
4E 4EE\	.	.
=52	=52	=52
!	!LO:TX:a:t=Da Capo al Segno [segno] e poi	!
4c 4C\	2.a\	.
4AA 4AAA\	.	.
!	!	!LO:TX:t=[segno]:problem:znak segno na kresce taktowej
4E 4EE\	.	.
=53||	=53||	=53||
*>D	*>D	*>D
!	!	!LO:DY:t=ppp.
8B-XL 8D\	4r	ppp
8d\J	.	.
4d\	4b-X 4f\	.
16qqe/	.	.
8d\L	4b- 4f\	.
8c#X\J	.	.
=54	=54	=54
8d\L	4r	.
8f\J	.	.
!	!LO:TX:a:t=bis	!
4d\	4b-X 4f\	.
4c#X\	4b- 4f\	.
=55	=55	=55
8B-X\L	4r	.
8d\J	.	.
4B-\	4ff 4b-X 4d\	.
4F\	4ff 4b- 4d\	.
=56	=56	=56
*^	*	*
*	*^	*	*
*	*	*	*ped	*
2.A/	4r	2.A\	4r	.
.	4E 4AA\	.	4ee 4a 4c#X\	.
.	4AAA/	.	4ee 4a 4c#\	.
*	*v	*v	*	*
=57:|!	=57:|!	=57:|!	=57:|!
*>E	*>E	*>E	*>E
!	!	!LO:TX:i:b:t=rallentando.	!
2.A\	4ryy	4r	.
.	4E 4AA\	4ee 4a 4c#X\	.
.	4AAA/	4ee 4a 4c#\	.
=58	=58	=58	=58
2.A\	4ryy	4r	.
.	4E 4AA\	4ee 4a 4c#X\	.
.	4AAA/	4ee 4a 4c#\	.
*v	*v	*	*
!!LO:LB:g=original
=59	=59	=59
16qqc# 16qqE 16qqAA\	16qqeee 16qqaa 16qqee\	???
!	!LO:TX:b:t=Fine.	!LO:DY:rj:t=Subito ff.
2.c#y 2.E 2.AA\	2.aa 2.ee 2.a\	ff
==	==	==
*-	*-	*-
!!!system-decoration: {(s1,s2)}
!!!RDF**kern: > = above
!!!RDF**kern: < = below
!!!ENC: Andrzej Kubiczek
!!!END: 2021-05-22
!!!ENC: Berenika Jozajtis
!!!END: 2021-05-06
